!!!COM:	la Rue, Pierre de
!!!CDT:	~1452///-1518/11/20
!!!OPR:	Missa De sancta cruce
!!!ONM:	4
!!!OTL:	Sanctus
!!!AGN:	Mass; Sanctus
!!!SCT:	Rue1011c
!!!SCA:	Rue1011c
!!!voices:	5
!!!voices-OPR:	5
**kern	**kern	**kern	**kern	**kern
*staff5	*staff4	*staff3	*staff2	*staff1
*Ivox	*Ivox	*Ivox	*Ivox	*Ivox
*I"Bassus	*I"Tenor2	*I"Tenor	*I"Contra	*I"Discantus
*I'B	*I'T2	*I'T	*I'C	*I'D
*>[A,B,C,D]	*>[A,B,C,D]	*>[A,B,C,D]	*>[A,B,C,D]	*>[A,B,C,D]
*>A	*>A	*>A	*>A	*>A
*clefF4	*clefGv2	*clefGv2	*clefG2	*clefG2
*k[b-]	*k[b-]	*k[b-]	*k[b-]	*k[b-]
*M3/1	*M3/1	*M3/1	*M3/1	*M3/1
*met(O)	*met(O)	*met(O)	*met(O)	*met(O)
!!section: Sanctus
!!!OMD: Sanctus
=1-	=1-	=1-	=1-	=1-
1r	0G	0.r	0.r	0.r
1r	.	.	.	.
[1G	[1B-	.	.	.
=2	=2	=2	=2	=2
2G\]	2B-\]	0.r	0.r	0.r
4F\	4A/	.	.	.
4E\	4G/	.	.	.
2F\	2A/	.	.	.
2G\	2B-\	.	.	.
[1C	[1c	.	.	.
=3	=3	=3	=3	=3
1C]	1c]	0.r	1r	0g
1r	1B-	.	1r	.
[1G	2G/	.	[1d	[1b-
.	[2B-\	.	.	.
=4	=4	=4	=4	=4
2G\]	2B-\]	0.r	1d]	2b-\]
4F\	2c\	.	.	4a/
4E\	.	.	.	4g/
1D	1d	.	1.f	2a/
.	.	.	.	2b-\
[1A	[1c	.	.	[1cc
.	.	.	4e/	.
.	.	.	4d/	.
=5	=5	=5	=5	=5
1A]	1c]	0.r	2e/	1cc]
.	.	.	2f/	.
0G	1d	.	0g	1b-
.	2e-i\	.	.	2g/
.	2d\	.	.	[2b-\
=6	=6	=6	=6	=6
1r	1e-i	0.r	1g	2b-\]
.	.	.	.	2cc\
2r	1d	.	2r	2.dd\
2G\	.	.	2g/	.
.	.	.	.	4b-\
2A\	2r	.	2e/	2cc\
2F\	2c\	.	[2f/	[2a/
=7	=7	=7	=7	=7
2D\	1d	0.r	2f/]	2a/]
2.G\	.	.	1d	1b-
.	2B-\	.	.	.
4F\	.	.	.	.
4E\	1c	.	2.e/	1g
4D\	.	.	.	.
1C	.	.	.	.
.	.	.	4f/	.
.	2e-i\	.	4g/	[2cc\
.	.	.	4a/	.
=8	=8	=8	=8	=8
2r	1d	[0.G	[0.g	4cc\]
.	.	.	.	4b-\
2G\	.	.	.	2b-\
2C/	2r	.	.	2cc\
2BB-/	2d\	.	.	2.dd\
1C	1e-i	.	.	.
.	.	.	.	4cc\
.	.	.	.	2cc\
=9	=9	=9	=9	=9
2r	2.d\	0.G]	0.g]	2dd\
2G\	.	.	.	2.ee-\
.	4B-\	.	.	.
2C/	2c\	.	.	.
.	.	.	.	4dd\
2BB-/	2d\	.	.	1dd
1C	1e-i	.	.	.
.	.	.	.	2cc\
=10	=10	=10	=10	=10
0G	[0.d	0.B-	2r	0dd
.	.	.	2g/	.
.	.	.	2.b-\	.
.	.	.	4a/	.
2r	.	.	2f/	1dd
2G\	.	.	2g/	.
=11	=11	=11	=11	=11
2D\	0.d]	0A	1.a	0ff
2.F\	.	.	.	.
4E\	.	.	.	.
4D\	.	.	2.f/	.
4C/	.	.	.	.
1BB-	.	1B-	.	1dd
.	.	.	4e/	.
.	.	.	2d/	.
=12	=12	=12	=12	=12
0AA	2r	[0.c	2e/	2r
.	2A/	.	2f/	2cc\
.	2.c\	.	2e/	2a/
.	.	.	1a	2.cc\
.	4B-\	.	.	.
1r	4A/	.	.	.
.	4G/	.	.	4b-\
.	[2F/	.	[2a/	4a/
.	.	.	.	4g/
=13	=13	=13	=13	=13
1r	2F/]	0c]	4a/]	2f/
.	.	.	4g/	.
.	2F/	.	1f	2a/
1C	1G	.	.	1g
.	.	.	2e/	.
2D\	2r	1A	1f	2.f/
[2F\	[2A/	.	.	.
.	.	.	.	4g/
=14	=14	=14	=14	=14
2F\]	2A/]	2d\	0.r	4a/
.	.	.	.	4b-\
2E\	1G	1c	.	4cc\
.	.	.	.	8b-\L
.	.	.	.	8cc\J
2D\	.	.	.	1dd
2BB-/	2.F/	2.B-\	.	.
1C	.	.	.	1ee
.	4E/	4A/	.	.
.	2E/	2A/	.	.
=15	=15	=15	=15	=15
0BB-	1F	0.B-	1f	0dd
.	2r	.	2g/	.
.	2F/	.	2.b-\	.
1r	2G/	.	.	1r
.	.	.	4a/	.
.	2B-\	.	[2g/	.
=16	=16	=16	=16	=16
1D	1A	0.r	2g/]	1dd
.	.	.	2f#i/	.
1.G	2G/	.	[0g	2dd\
.	1B-	.	.	2.b-\
.	.	.	.	4cc\
2F\	2A/	.	.	2dd\
=17	=17	=17	=17	=17
0E-	1G	2r	0g]	2g/
.	.	2B-\	.	1b-
.	2.B-\	2G/	.	.
.	.	1B-	.	4a/
.	4c\	.	.	4g/
1D	1d	.	1r	1f
.	.	[2A/	.	.
=18	=18	=18	=18	=18
1F	2c\	2A/]	1r	2.a/
.	2A/	1c	.	.
.	.	.	.	4b-\
1C	2G/	.	1.g	1cc
.	1c	1G	.	.
1E-i	.	.	.	2r
.	4B-\	[2B-\	4f/	[2g/
.	4A/	.	4e/	.
=19	=19	=19	=19	=19
1G	1B-	2B-\]	1d	4g/]
.	.	.	.	4a/
.	.	1d	.	4b-\
.	.	.	.	4cc\
0F	0A	.	0f	2dd\
.	.	1c	.	1a
.	.	[2A/	.	[2ff\
=20	=20	=20	=20	=20
1D	1r	2A/]	1f	4ff\]
.	.	.	.	4ee\
.	.	1B-	.	4dd\
.	.	.	.	4cc\
1E-i	2.G/	.	1.g	2b-\
.	.	1G	.	2.cc\
.	4F/	.	.	.
1C	4E/	.	.	.
.	4D/	.	.	4dd\
.	[2G/	[2c\	4f/	2ee\
.	.	.	4e/	.
=21	=21	=21	=21	=21
1D	2G/]	2c\]	1d	1ff
.	2F/	2B-\	.	.
2.C/	2G/	0c	2.e/	2ee\
.	2A/	.	.	1cc
4D\	.	.	4f/	.
2E\	2G/	.	2g/	.
[2F\	2F/	.	[2c/	4b-\
.	.	.	.	4a/
=22	=22	=22	=22	=22
2F\]	1G	1c	4c/]	2.g/
.	.	.	4d/	.
2E\	.	.	2e/	.
.	.	.	.	4a/
2F\	2.F/	2c\	2A/	0a
2D\	.	2.d\	2.f/	.
.	4G/	.	.	.
1AA	1A	.	.	.
.	.	4c\	4e/	.
.	.	2c\	2e/	.
=23	=23	=23	=23	=23
2r	2F/	2d\	2f/	2r
2C/	2E/	1e	2c/	1a
2D\	2F/	.	2r	.
2BB-/	2D/	1d	2g/	2b-\
1AA	1E	.	2.a/	2.cc\
.	.	2c#i\	.	.
.	.	.	4g/	4a/
=24	=24	=24	=24	=24
1r	1D	[0.dl	4f/	2b-\
.	.	.	4e/	.
.	.	.	4d/	1a
.	.	.	4c/	.
1r	1G	.	1B-	.
.	.	.	.	2g/
2.D\	2.F/	.	2A/	2a/
.	.	.	[2f/	[2dd\
4E\	4G/	.	.	.
=25	=25	=25	=25	=25
2F\	2A/	0.d_	2f/]	4dd\]
.	.	.	.	4ee\
2.BB-/	1B-	.	2d/	2.ff\
.	.	.	1f	.
4C/	.	.	.	4ee\
4D\	2.A/	.	.	4dd\
4E\	.	.	.	8cc\L
.	.	.	.	8b-\J
2F\	.	.	2r	2a/
.	4G/	.	.	.
2G\	2G/	.	2B-/	2b-\
=26	=26	=26	=26	=26
2.D\	1A	0.d_	0f	2a/
.	.	.	.	2.dd\
4E\	.	.	.	.
1F	2.D/	.	.	.
.	.	.	.	4cc\
.	.	.	.	2a/
.	4E/	.	.	.
2.BB-/	[1Fl	.	2d/	[1b-
.	.	.	2B-/	.
4C/	.	.	.	.
=27	=27	=27	=27	=27
0.Dl	0.F]	0.d]	0.fl	2b-\]
.	.	.	.	2a/
.	.	.	.	0al
!!LO:LB:i:g=z
=28||	=28||	=28||	=28||	=28||
*>B	*>B	*>B	*>B	*>B
*clefF4	*clefGv2	*clefGv2	*clefG2	*clefG2
*k[b-]	*k[b-]	*k[b-]	*k[b-]	*k[b-]
*M3/1	*M3/1	*M3/1	*M3/1	*M3/1
*met(O)	*met(O)	*met(O)	*met(O)	*met(O)
!!section: Pleni sunt celi
!!!OMD: Pleni sunt celi
0.r	0.r	0.r	0.r	2.f/
.	.	.	.	4g/
.	.	.	.	2a/
.	.	.	.	2.b-\
.	.	.	.	4cc\
.	.	.	.	2dd\
=29	=29	=29	=29	=29
0.r	0.r	0.r	2.B-/	2.g/
.	.	.	4c/	4a/
.	.	.	2d/	2b-\
.	.	.	2.e/	2.cc\
.	.	.	4f/	4b-\
.	.	.	2g/	2b-\
=30	=30	=30	=30	=30
2.C/	0.r	0.r	4c/	2.cc\
.	.	.	4d/	.
.	.	.	4e/	.
4D\	.	.	4f/	4b-\
2E\	.	.	2g/	2g/
2.F\	.	.	2.f/	2.a/
4G\	.	.	4e/	4b-\
2A\	.	.	2e/	2cc\
=31	=31	=31	=31	=31
2.D\	0.r	0.r	1f	2.dd\
4E\	.	.	.	4cc\
2F\	.	.	2r	2a/
2.G\	.	.	2.d/	2.b-\
4F\	.	.	4e/	4cc\
2D\	.	.	2f/	2dd\
=32	=32	=32	=32	=32
2.E\	0.r	0.r	2.g/	2.g/
4F\	.	.	4f/	4a/
2G\	.	.	2d/	2b-\
2.A\	.	.	4c/	2.cc\
.	.	.	4d/	.
.	.	.	4e/	.
4G\	.	.	4f/	4dd\
2E\	.	.	2g/	2ee\
=33	=33	=33	=33	=33
2.F\	0.r	0.r	1a	4a/
.	.	.	.	4b-\
.	.	.	.	4cc\
4E\	.	.	.	4dd\
2C/	.	.	2g/	2ee\
4D\	.	.	1f	2.ff\
4E\	.	.	.	.
4F\	.	.	.	.
4G\	.	.	.	4ee\
2A\	.	.	2e/	2cc\
=34	=34	=34	=34	=34
2.B-\	0.r	0.r	2.d/	2.dd\
4c\	.	.	4e/	4cc\
2d\	.	.	2f/	2a/
2.G\	.	.	1g	2.b-\
4F\	.	.	.	4cc\
2D\	.	.	2f/	2dd\
=35	=35	=35	=35	=35
2.C/	0.r	0.r	2.e/	1g
4D\	.	.	4f/	.
2E\	.	.	2g/	1r
2.F\	.	.	2.a/	.
.	.	.	.	1r
4G\	.	.	4g/	.
2A\	.	.	2e/	.
=36	=36	=36	=36	=36
1D	0.r	0.r	2.f/	2.dd\
.	.	.	4g/	4cc\
1r	.	.	2a/	2a/
.	.	.	2.d/	2.b-\
1r	.	.	.	.
.	.	.	4e/	4cc\
.	.	.	2f/	2dd\
=37	=37	=37	=37	=37
2.G\	0.r	0.r	2.g/	4g/
.	.	.	.	4a/
.	.	.	.	4b-\
4A\	.	.	4f/	4cc\
2B-\	.	.	2d/	2dd\
2.c\	.	.	2c/	2.ee\
.	.	.	1r	.
4A\	.	.	.	4cc\
2B-\	.	.	.	2dd\
=38	=38	=38	=38	=38
2.c\	0.r	0.r	4c/	2.cc\
.	.	.	4d/	.
.	.	.	4e/	.
4B-\	.	.	4f/	4dd\
2G\	.	.	2g/	2ee\
2.F\	.	.	2.a/	2.ff\
4G\	.	.	4g/	4ee\
2A\	.	.	2e/	2cc\
=39	=39	=39	=39	=39
0D	0.r	0.r	2.f/	2.dd\
.	.	.	4g/	4cc\
.	.	.	2a/	2a/
.	.	.	2.d/	1b-
1E	.	.	.	.
.	.	.	4c/	.
.	.	.	2c/	4a/
.	.	.	.	4g/
=40	=40	=40	=40	=40
0D	0.r	0.r	2.d/	0f
.	.	.	4c/	.
.	.	.	2A/	.
.	.	.	2.B-/	.
1D	.	.	.	1f
.	.	.	4c/	.
.	.	.	2d/	.
=41	=41	=41	=41	=41
0E	0.r	0.r	2.G/	1.g
.	.	.	4A/	.
.	.	.	2B-/	.
.	.	.	2.c/	2g/
1C	.	.	.	1g
.	.	.	4d/	.
.	.	.	2e/	.
=42	=42	=42	=42	=42
2.D\	0.r	0.r	2A/	2.f/
.	.	.	1d	.
4E\	.	.	.	4g/
2F\	.	.	.	2a/
2.G\	.	.	2.B-/	2.b-\
4F\	.	.	4c/	4a/
2D\	.	.	2d/	2f/
=43	=43	=43	=43	=43
2.C/	0.r	0.r	2.e/	2g/
.	.	.	.	2cc\
4D\	.	.	4f/	.
2E\	.	.	2g/	2b-\
2.F\	.	.	2.c/	2.a/
4D\	.	.	4d/	4f/
2E\	.	.	2B-/	2g/
=44	=44	=44	=44	=44
4AA/	0.r	0.r	2.A/	1a
4BB-/	.	.	.	.
4C/	.	.	.	.
4D\	.	.	4B-/	.
2E\	.	.	2c/	1r
2.F\	.	.	2.d/	.
.	.	.	.	1r
4G\	.	.	4c/	.
2A\	.	.	2c/	.
=45	=45	=45	=45	=45
1D	0.r	0.r	2.d/	4f/
.	.	.	.	4g/
.	.	.	.	4a/
.	.	.	4c/	4b-\
1r	.	.	2A/	2cc\
.	.	.	2.B-/	2.dd\
1D	.	.	.	.
.	.	.	4c/	4ee\
.	.	.	4d/	2ff\
.	.	.	4B-/	.
=46	=46	=46	=46	=46
4C/	0.r	0.r	1c	2.ee\
4D\	.	.	.	.
4E\	.	.	.	.
4F\	.	.	.	4dd\
2G\	.	.	2r	2b-\
2.A\	.	.	2.f/	2.cc\
4B-\	.	.	4e/	4b-\
2c\	.	.	2e/	2g/
=47	=47	=47	=47	=47
1F	0.r	0.r	2.f/	4a/
.	.	.	.	4f/
.	.	.	.	4a/
.	.	.	4g/	4b-\
1r	.	.	2a/	2cc\
.	.	.	2.d/	2.dd\
1D	.	.	.	.
.	.	.	4c/	4ee\
.	.	.	4A/	2ff\
.	.	.	4B-/	.
=48	=48	=48	=48	=48
4C/	0.r	0.r	1c	2.ee\
4D\	.	.	.	.
4E\	.	.	.	.
4F\	.	.	.	4dd\
2G\	.	.	2r	2b-\
2.A\	.	.	2.f/	2.cc\
4B-\	.	.	4e/	4b-\
2c\	.	.	2e/	2g/
=49	=49	=49	=49	=49
2.F\	0.r	0.r	2.f/	2.a/
4G\	.	.	4e/	4b-\
2A\	.	.	2e/	2cc\
2.D\	.	.	2.f/	2.dd\
4E\	.	.	4g/	4cc\
2F\	.	.	2a/	2a/
=50	=50	=50	=50	=50
4G\	0.r	0.r	1d	2.b-\
4A\	.	.	.	.
4B-\	.	.	.	.
4c\	.	.	.	4a/
2d\	.	.	2r	2f/
2G\	.	.	2.d/	1g
1A	.	.	.	.
.	.	.	4c/	.
.	.	.	2c/	2f/
=51	=51	=51	=51	=51
1G	0.r	0.r	2.d/	4g/
.	.	.	.	4a/
.	.	.	.	4b-\
.	.	.	4e/	4cc\
2r	.	.	2f/	2dd\
2.C/	.	.	2.g/	2.ee\
4D\	.	.	4f/	4dd\
2E\	.	.	4e/	4cc\
.	.	.	4d/	4b-\
=52	=52	=52	=52	=52
2F\	0.r	0.r	2c/	2a/
2E\	.	.	1e	2g/
4G\	.	.	.	4b-\
4F\	.	.	.	4a/
4E\	.	.	2.d/	4g/
4D\	.	.	.	4f/
1E	.	.	.	1g
.	.	.	4c#i/	.
.	.	.	2c#i/	.
=53	=53	=53	=53	=53
0D	0.r	0.r	2d/	0f
.	.	.	2A/	.
.	.	.	4d/	.
.	.	.	4c/	.
.	.	.	4B-/	.
.	.	.	4A/	.
1r	.	.	1B-	1g
=54	=54	=54	=54	=54
2r	0.r	0.r	1A	2.a/
2F\	.	.	.	.
.	.	.	.	4f/
4G\	.	.	2r	4b-\
4F\	.	.	.	4a/
4E\	.	.	2.d/	4g/
4D\	.	.	.	4f/
1E	.	.	.	1g
.	.	.	4c#i/	.
.	.	.	2c#i/	.
=55	=55	=55	=55	=55
1D	0.r	0.r	2d/	4f/
.	.	.	.	4g/
.	.	.	2A/	4a/
.	.	.	.	8g/L
.	.	.	.	8a/J
2r	.	.	4d/	2b-\
.	.	.	4c/	.
2C/	.	.	4B-/	1a
.	.	.	4A/	.
2D\	.	.	1B-	.
2E\	.	.	.	2g/
=56	=56	=56	=56	=56
2F\	0.r	0.r	[0.Al	[0.al
2C/	.	.	.	.
4F\	.	.	.	.
4E\	.	.	.	.
4D\	.	.	.	.
4C/	.	.	.	.
1D	.	.	.	.
=57	=57	=57	=57	=57
0.AAl	0.r	0.r	0.A]	0.a]
!!LO:LB:i:g=z
=58||	=58||	=58||	=58||	=58||
*>C	*>C	*>C	*>C	*>C
*clefF4	*clefGv2	*clefGv2	*clefG2	*clefG2
*k[b-]	*k[b-]	*k[b-]	*k[b-]	*k[b-]
*M2/1	*M2/1	*M2/1	*M2/1	*M2/1
*met(C|)	*met(C|)	*met(C|)	*met(C|)	*met(C|)
!!section: Osanna
!!!OMD: Osanna
[0D	0A	[0f	[0d	[0a
=59	=59	=59	=59	=59
0D_	1.A	0f_	0d]	0a]
.	4G/	.	.	.
.	4F/	.	.	.
=60	=60	=60	=60	=60
0D_	[0F	0f]	0d	1b-
.	.	.	.	[1a
=61	=61	=61	=61	=61
0D]	0F]	[0d	2.f/	2a/]
.	.	.	.	2.dd\
.	.	.	4g/	.
.	.	.	[1a	.
.	.	.	.	4ee\
.	.	.	.	[2ff\
=62	=62	=62	=62	=62
1F	1A	0d]	1a]	4ff\]
.	.	.	.	4ee\
.	.	.	.	4dd\
.	.	.	.	4cc\
1G	1B-	.	1g	2.b-\
.	.	.	.	4a/
=63	=63	=63	=63	=63
1C	1G	[0c	1e	0cc
[1F	[1A	.	2f/	.
.	.	.	4e/	.
.	.	.	4d/	.
=64	=64	=64	=64	=64
2F\]	2A/]	0c_	2c/	1r
4E\	4G/	.	1f	.
4D\	4F/	.	.	.
1C	1G	.	.	2r
.	.	.	2e/	[2cc\
=65	=65	=65	=65	=65
1r	1F	0c_	1f	2cc\]
.	.	.	.	4b-\
.	.	.	.	4a/
2r	1r	.	1r	2g/
[2F\	.	.	.	[2a/
=66	=66	=66	=66	=66
4F\]	1r	0c]	1r	2a/]
4E\	.	.	.	.
2E\	.	.	.	2g/
[1F	2.F/	.	[1f	2a/
.	.	.	.	2f/
.	4G/	.	.	.
=67	=67	=67	=67	=67
2F\]	2A/	1c	2f/]	0cc
4E\	2B-\	.	2g/	.
4D\	.	.	.	.
1C	1c	1e	1a	.
=68	=68	=68	=68	=68
0BB-	0F	0d	0b-	1dd
.	.	.	.	1ff
=69	=69	=69	=69	=69
0C	2r	[0c	1g	0ee
.	1c	.	.	.
.	.	.	4g/	.
.	.	.	4f/	.
.	4B-\	.	4e/	.
.	4A/	.	4d/	.
=70	=70	=70	=70	=70
1C	1G	0c]	1e	4ee\
.	.	.	.	4dd\
.	.	.	.	4cc\
.	.	.	.	4b-\
1F	[1A	.	[1f	1a
=71	=71	=71	=71	=71
4F\	1A]	1c	1f]	1r
4E\	.	.	.	.
4D\	.	.	.	.
4C/	.	.	.	.
[1BB-	[1B-	1d	1f	[1dd
=72	=72	=72	=72	=72
1BB-]	2B-\]	1.f	1.b-	1dd]
.	2c\	.	.	.
[1B-	[1d	.	.	1dd
.	.	2e\	4a/	.
.	.	.	4g/	.
=73	=73	=73	=73	=73
2B-\]	2d\]	1.d	2f/	2.dd\
4A\	4c\	.	2g/	.
4G\	4B-\	.	.	4ee\
2F\	2A/	.	2a/	2ff\
2G\	2B-\	4c\	2d/	[2ee\
.	.	4B-\	.	.
=74	=74	=74	=74	=74
2A\	0A	2c\	0a	2ee\]
2D\	.	2d\	.	1dd
1A	.	1e	.	.
.	.	.	.	2cc#i\
=75	=75	=75	=75	=75
[0D	2r	[0d	2r	0dd
.	1A	.	1a	.
.	[2B-\	.	2f/	.
=76	=76	=76	=76	=76
0D]	2B-\]	0d_	2d/	1r
.	4A/	.	2.g/	.
.	4G/	.	.	.
.	1A	.	.	1a
.	.	.	4f#i/	.
.	.	.	2f#i/	.
=77	=77	=77	=77	=77
1r	0G	0d]	0g	1.b-
[1G	.	.	.	.
.	.	.	.	4a/
.	.	.	.	4g/
=78	=78	=78	=78	=78
2G\]	0r	1r	0r	2b-\
2A\	.	.	.	1a
1B-	.	1d	.	.
.	.	.	.	2g/
=79	=79	=79	=79	=79
1A	1r	1c	1r	1a
2r	1d	1B-	1f	[1dd
[2D\	.	.	.	.
=80	=80	=80	=80	=80
2D\]	1.f	0A	1.a	1dd]
2.D\	.	.	.	.
.	.	.	.	2.a/
4E\	.	.	.	.
4F\	4e\	.	4g/	.
4G\	4d\	.	4f/	4b-\
=81	=81	=81	=81	=81
2A\	2c\	1r	2e/	2cc\
2F\	2d\	.	2f/	2a/
1G	2B-\	[1d	2.d/	1b-
.	4A/	.	.	.
.	4G/	.	4e/	.
=82	=82	=82	=82	=82
0D	1F	1d]	0f	0a
.	2.F/	1d	.	.
.	4G/	.	.	.
=83	=83	=83	=83	=83
0r	2A/	1c	1f	2r
.	2F/	.	.	2a/
.	1G	1B-	1d	2b-\
.	.	.	.	2g/
=84	=84	=84	=84	=84
1.A	1r	0c	1e	2a/
.	.	.	.	4g/
.	.	.	.	4f/
.	2.A/	.	1a	1e
4G\	.	.	.	.
4F\	4B-\	.	.	.
=85	=85	=85	=85	=85
0E	2c\	0G	4g/	2r
.	.	.	4f/	.
.	2B-\	.	4e/	1ee
.	.	.	4d/	.
.	1G	.	2.c#i/	.
.	.	.	.	2ee\
.	.	.	4d/	.
=86	=86	=86	=86	=86
1D	0A	1r	1d	2ff\
.	.	.	.	2dd\
1A	.	1c	1r	2ee\
.	.	.	.	2cc\
=87	=87	=87	=87	=87
1r	1G	1B-	1d	2dd\
.	.	.	.	4cc\
.	.	.	.	4b-\
1D	1F	1d	[1f	[1a
=88	=88	=88	=88	=88
1F	1A	1c	2f/]	1a]
.	.	.	4e/	.
.	.	.	4d/	.
[1D	1F	2B-\	2.f/	2.dd\
.	.	[2A/	.	.
.	.	.	4g/	4cc\
=89	=89	=89	=89	=89
1D]	2.F/	2A/]	2a/	2a/
.	.	2.d\	2d/	1b-
.	4G/	.	.	.
1F	4A/	.	2r	.
.	4B-\	4c\	.	.
.	2c\	2A/	2a/	[2a/
=90	=90	=90	=90	=90
1G	2B-\	1B-	4g/	4a/]
.	.	.	4f/	4g/
.	2.d\	.	4e/	2g/
.	.	.	4d/	.
2D\	.	1A	2f/	1a
.	4c\	.	.	.
2F\	[2A/	.	[2d/	.
=91	=91	=91	=91	=91
1E	2A/]	1r	2d/]	1r
.	2G/	.	2c#i/	.
1D	1A	2r	[1d	2r
.	.	[2d\	.	[2ff\
=92	=92	=92	=92	=92
0r	0r	2d\]	0d_	2ff\]
.	.	2c\	.	2ee\
.	.	2B-\	.	2dd\
.	.	2A/	.	2cc\
=93	=93	=93	=93	=93
0r	0r	2G/	1d]	2b-\
.	.	2A/	.	1a
.	.	1B-	1d	.
.	.	.	.	2g/
=94	=94	=94	=94	=94
2r	2.c\	[0Al	0e	[0al
1c	.	.	.	.
.	4B-\	.	.	.
.	2A/	.	.	.
2B-\	2G/	.	.	.
=95	=95	=95	=95	=95
2A\	2F/	0A_	2r	0a_
2G\	2E/	.	2e/	.
2F\	2.A/	.	4f/	.
.	.	.	4e/	.
2E\	.	.	4d/	.
.	4G/	.	4c/	.
=96	=96	=96	=96	=96
2D\	2F/	0A_	2d/	0a_
2C/	2E/	.	1e	.
1D	1F	.	.	.
.	.	.	2d/	.
=97	=97	=97	=97	=97
0AAl	0El	0A]	0el	0a]
!!LO:TX:rj:i:t=fine
!!LO:LB:i:g=z
=98||	=98||	=98||	=98||	=98||
*>D	*>D	*>D	*>D	*>D
*clefF4	*clefGv2	*clefGv2	*clefG2	*clefG2
*k[b-]	*k[b-]	*k[b-]	*k[b-]	*k[b-]
*M2/1	*M2/1	*M2/1	*M2/1	*M2/1
*met(C|)	*met(C|)	*met(C|)	*met(C|)	*met(C|)
!!section: Benedictus
!!!OMD: Benedictus
0r	1e	0r	0r	0r
.	2e\	.	.	.
.	[2f\	.	.	.
=99	=99	=99	=99	=99
0A	2f\]	0r	0r	0r
.	4e\	.	.	.
.	4d\	.	.	.
.	2e\	.	.	.
.	2c\	.	.	.
=100	=100	=100	=100	=100
1B-	1d	0r	0r	0r
2A\	[1c	.	.	.
[2A\	.	.	.	.
=101	=101	=101	=101	=101
2A\]	1c]	0r	0r	0r
4G\	.	.	.	.
4F\	.	.	.	.
1G	2r	.	.	.
.	2e\	.	.	.
=102	=102	=102	=102	=102
0F	2f\	0r	0r	0r
.	2d\	.	.	.
.	1f	.	.	.
=103	=103	=103	=103	=103
2r	2e\	0r	0r	0r
2A\	2c\	.	.	.
1B-	2d\	.	.	.
.	[2g\	.	.	.
=104	=104	=104	=104	=104
2A\	4g\]	0r	1r	0r
.	4f\	.	.	.
2F\	1f	.	.	.
1G	.	.	1g	.
.	2e\	.	.	.
=105	=105	=105	=105	=105
0F	0f	0r	1a	2r
.	.	.	.	2cc\
.	.	.	1a	1dd
=106	=106	=106	=106	=106
0r	0r	0r	1a	2cc\
.	.	.	.	2a/
.	.	.	2r	1b-
.	.	.	2g/	.
=107	=107	=107	=107	=107
0r	0r	0r	2.a/	2.a/
.	.	.	4g/	4b-\
.	.	.	2f/	2cc\
.	.	.	2d/	[2dd\
=108	=108	=108	=108	=108
2r	1r	0r	1e	4dd\]
.	.	.	.	4cc\
2A\	.	.	.	2cc\
1B-	1d	.	1d	2dd\
.	.	.	.	[2ff\
=109	=109	=109	=109	=109
1A	1c	0r	2r	4ff\]
.	.	.	.	4ee\
.	.	.	1a	1ee
2.A\	2.c\	.	.	.
.	.	.	[2a/	2cc\
4G\	4B-\	.	.	.
=110	=110	=110	=110	=110
2F\	2A/	0r	4a/]	2dd\
.	.	.	4f/	.
2E\	2G/	.	2g/	2ee\
2r	2A/	.	[1e	1cc
[2A\	[2c\	.	.	.
=111	=111	=111	=111	=111
2A\]	2c\]	0r	2e/]	1r
2F\	2A/	.	2f/	.
2G\	2B-\	.	2e/	2r
2A\	2c\	.	[2a/	[2cc\
=112	=112	=112	=112	=112
1F	1A	0r	2a/]	2cc\]
.	.	.	2f/	2a/
1r	1r	.	2g/	2b-\
.	.	.	2a/	2cc\
=113	=113	=113	=113	=113
0r	0r	0r	2.f/	2.a/
.	.	.	4d/	4f/
.	.	.	2e/	2g/
.	.	.	2f/	2f/
=114	=114	=114	=114	=114
0A	1.e	0r	2e/	[0cc
.	.	.	2A/	.
.	.	.	[1a	.
.	[2f\	.	.	.
=115	=115	=115	=115	=115
1A	2f\]	0r	1a]	1cc]
.	2.e\	.	.	.
1B-	.	.	1g	1dd
.	4d\	.	.	.
.	2d\	.	.	.
=116	=116	=116	=116	=116
0A	0e	0r	1.a	2.cc\
.	.	.	.	4dd\
.	.	.	.	4ee\
.	.	.	.	4ff\
.	.	.	4g/	[2ee\
.	.	.	4f/	.
=117	=117	=117	=117	=117
0r	0r	0r	4g/	2ee\]
.	.	.	4f/	.
.	.	.	4e/	1dd
.	.	.	4d/	.
.	.	.	1e	.
.	.	.	.	2cc#i\
=118	=118	=118	=118	=118
2.D\	1r	0r	1d	0dd
4E\	.	.	.	.
2F\	1d	.	1r	.
2G\	.	.	.	.
=119	=119	=119	=119	=119
2E\	1.e	0r	0r	0r
1A	.	.	.	.
2D\	[2f\	.	.	.
=120	=120	=120	=120	=120
1A	2f\]	0r	0r	0r
.	4e\	.	.	.
.	4d\	.	.	.
2A\	2c\	.	.	.
[2B-\	[2d\	.	.	.
=121	=121	=121	=121	=121
2B-\]	4d\]	0r	0r	1r
.	4A/	.	.	.
1A	2c\	.	.	.
.	1B-	.	.	1dd
2G\	.	.	.	.
=122	=122	=122	=122	=122
0A	1A	0r	1.e	2.cc\
.	.	.	.	4b-\
.	1r	.	.	4a/
.	.	.	.	4g/
.	.	.	[2f/	[2a/
=123	=123	=123	=123	=123
0r	0r	0r	2f/]	2a/]
.	.	.	4e/	4g/
.	.	.	4d/	4f/
.	.	.	1e	1g
=124	=124	=124	=124	=124
0D	1.A	0r	0d	0f
.	[2B-\	.	.	.
=125	=125	=125	=125	=125
1D	2B-\]	0r	1r	1r
.	4A/	.	.	.
.	4G/	.	.	.
1D	1A	.	1d	1f
=126	=126	=126	=126	=126
2E\	0r	0r	2.c/	2g/
2F\	.	.	.	2.a/
.	.	.	4B-/	.
1D	.	.	2d/	.
.	.	.	.	4g/
.	.	.	[2f/	4f/
.	.	.	.	4e/
=127	=127	=127	=127	=127
0r	1r	0r	4f/]	2d/
.	.	.	4e/	.
.	.	.	1d	2f/
.	[1A	.	.	1e
.	.	.	2c#i/	.
=128	=128	=128	=128	=128
1D	2A/]	0r	0d	1d
.	1B-	.	.	.
1G	.	.	.	1r
.	4A/	.	.	.
.	4G/	.	.	.
=129	=129	=129	=129	=129
2F\	2.A/	0r	1r	0r
2.F\	.	.	.	.
.	4F/	.	.	.
.	1G	.	1g	.
4E\	.	.	.	.
2E\	.	.	.	.
=130	=130	=130	=130	=130
0F	1F	0r	2a/	2r
.	.	.	2.a/	2.cc\
.	1r	.	.	.
.	.	.	4g/	4b-\
.	.	.	4f/	4a/
.	.	.	4e/	4g/
=131	=131	=131	=131	=131
0r	1r	0r	4d/	2f/
.	.	.	4c/	.
.	.	.	1f	2a/
.	[1c	.	.	1g
.	.	.	2e/	.
=132	=132	=132	=132	=132
2.F\	2c\]	0r	1a	1f
.	1d	.	.	.
4E\	.	.	.	.
2F\	.	.	2a/	1r
2G\	4c\	.	[2g/	.
.	4B-\	.	.	.
=133	=133	=133	=133	=133
0C	2c\	0r	4g/]	1r
.	.	.	4f/	.
.	4B-\	.	1f	.
.	4A/	.	.	.
.	1G	.	.	1cc
.	.	.	2e/	.
=134	=134	=134	=134	=134
0r	0F	0r	2.f/	2a/
.	.	.	.	1dd
.	.	.	4e/	.
.	.	.	4f/	.
.	.	.	4e/	.
.	.	.	4d/	[2cc\
.	.	.	4c/	.
=135	=135	=135	=135	=135
1r	1r	0r	1d	4cc\]
.	.	.	.	4bni\
.	.	.	.	2bni\
1C	1e	.	[1c	1cc
=136	=136	=136	=136	=136
2.F\	2.f\	0r	1c]	0r
4G\	4e\	.	.	.
4A\	4f\	.	1r	.
4G\	4e\	.	.	.
[2A\	[2f\	.	.	.
=137	=137	=137	=137	=137
2A\]	2f\]	0r	0r	0r
4G\	4e\	.	.	.
4F\	4d\	.	.	.
2A\	4c\	.	.	.
.	4d\	.	.	.
4G\	4e\	.	.	.
4F\	4f\	.	.	.
=138	=138	=138	=138	=138
4G\	2e\	0r	1r	0r
4F\	.	.	.	.
4E\	1d	.	.	.
4D\	.	.	.	.
1E	.	.	1e	.
.	2c#i\	.	.	.
=139	=139	=139	=139	=139
0D	[0d	0r	1f	1r
.	.	.	1f	1a
=140	=140	=140	=140	=140
1G	0d_	0r	1g	2.b-\
.	.	.	.	4a/
2r	.	.	2f/	4b-\
.	.	.	.	4a/
[2G\	.	.	[2g/	[2b-\
=141	=141	=141	=141	=141
2G\]	0d]	0r	4g/]	2b-\]
.	.	.	4f/	.
4F\	.	.	2d/	4a/
4E\	.	.	.	4g/
1D	.	.	2.a/	4f/
.	.	.	.	4g/
.	.	.	.	4a/
.	.	.	4g/	4b-\
=142	=142	=142	=142	=142
2F\	0r	0r	2f/	2a/
2G\	.	.	4e/	1g
.	.	.	4d/	.
1A	.	.	2.c/	.
.	.	.	.	2f#i/
.	.	.	4d/	.
=143	=143	=143	=143	=143
0G	1r	0r	0d	2.g/
.	.	.	.	4a/
.	1d	.	.	4b-\
.	.	.	.	4g/
.	.	.	.	[2b-\
=144	=144	=144	=144	=144
*	*	*	*M3/1	*
*	*	*	*met(3)	*
*	*	*	*rscale:3/2	*
1r	1c	0r	3%2r	2b-\]
.	.	.	.	1a
.	.	.	3%2.d	.
1G	1B-	.	.	.
.	.	.	.	2g/
.	.	.	3e/	.
=145	=145	=145	=145	=145
1F	1A	0r	3%2f	2a/
.	.	.	.	2f/
.	.	.	3d/	.
1E	1r	.	3e/	1g
.	.	.	3.c#i/	.
.	.	.	6Bni/	.
*	*	*	*rscale:1	*
=146	=146	=146	=146	=146
*	*	*	*M2/1	*
*	*	*	*met(C|)	*
2D\	2r	0r	1d	2r
2F\	1A	.	.	2f/
1E	.	.	1r	1g
.	2G/	.	.	.
=147	=147	=147	=147	=147
1D	1A	0r	0d	2r
.	.	.	.	2f/
1r	1B-	.	.	1g
=148	=148	=148	=148	=148
1D	0A	0r	2d/	2f/
.	.	.	2f/	2d/
2C/	.	.	2e/	2e/
[2D\	.	.	[2f/	[2d/
=149	=149	=149	=149	=149
4D\]	1r	0r	2f/]	4d/]
4C/	.	.	.	4e/
4D\	.	.	4e/	4f/
4E\	.	.	4d/	4g/
2F\	2r	.	2c/	2a/
2D\	[2A/	.	[2d/	2f/
=150	=150	=150	=150	=150
1E	2A/]	0r	2d/]	1g
.	2G/	.	2c#i/	.
1D	1A	.	[1d	[1f
=151	=151	=151	=151	=151
2r	1B-	0r	1d]	1f]
1D	.	.	.	.
.	2A/	.	2r	2r
[2D\	[2d\	.	[2f/	2f/
=152	=152	=152	=152	=152
4D\]	2d\]	0r	2f/]	2.a/
4E\	.	.	.	.
4F\	1c	.	4e/	.
4G\	.	.	4d/	4b-\
2A\	.	.	2c/	2cc\
[2D\	[2f\	.	2B-/	[2dd\
=153	=153	=153	=153	=153
2D\]	2f\]	0r	1A	2dd\]
2.F\	2f\	.	.	1cc
.	1f	.	1A	.
4E\	.	.	.	.
2D\	.	.	.	[2ff\
=154	=154	=154	=154	=154
1C	[0g	0r	2r	4ff\]
.	.	.	.	4ee\
.	.	.	2c/	2ee\
2BB-/	.	.	2d/	2dd\
[2C/	.	.	2c/	[2ee\
=155	=155	=155	=155	=155
4C/]	1g]	0r	1e	4ee\]
4D\	.	.	.	4dd\
2E\	.	.	.	4cc\
.	.	.	.	4b-\
2F\	1f	.	2c/	2a/
[2D\	.	.	[2d/	2b-\
=156	=156	=156	=156	=156
2D\]	2f\	0r	4d/]	2a/
.	.	.	4e/	.
4C/	4e\	.	4f/	1dd
4BB-/	4d\	.	4g/	.
1AA	1e	.	1a	.
.	.	.	.	2cc\
=157	=157	=157	=157	=157
0r	2.d\	0r	1f	2dd\
.	.	.	.	2a/
.	4c\	.	.	.
.	2B-\	.	2g/	2.dd\
.	2A/	.	2a/	.
.	.	.	.	4cc\
=158	=158	=158	=158	=158
0r	2.d\	0r	2.f/	4b-\
.	.	.	.	4a/
.	.	.	.	1b-
.	4c\	.	4e/	.
.	4d\	.	4f/	.
.	4c\	.	4e/	.
.	4B-\	.	4d/	[2a/
.	4A/	.	4c/	.
=159	=159	=159	=159	=159
1r	1B-	0r	1d	2a/]
.	.	.	.	2g/
2r	[1Al	.	1e	[1al
2C/	.	.	.	.
=160	=160	=160	=160	=160
2D\	0A_	0r	2r	0a_
2E\	.	.	2c/	.
2.F\	.	.	2d/	.
.	.	.	2c/	.
4G\	.	.	.	.
=161	=161	=161	=161	=161
1A	0A_	0r	1.f	0a_
[1AAl	.	.	.	.
.	.	.	4e/	.
.	.	.	4d/	.
=162	=162	=162	=162	=162
0AA]	0A]	0r	2c/	0a]
.	.	.	2d/	.
.	.	.	1el	.
!!LO:TX:i:Y=40:rj:t=Osanna ut supra
==	==	==	==	==
*-	*-	*-	*-	*-
!!!RDF**kern: l=long note in original notation
!!!RDF**kern: i=editorial accidental
!!!RDF**kern: V=start of tuplet marker
!!!RDF**kern: Z=end of tuplet marker
!!!ENC:	Chris Gage 09-22-2012
!!!END:	2012/09/29/
!!!EED:	Jesse Rodin
!!!EEV:	2012/09/29/
!!!ONB:	Translated from MusicXML and edited on 2012/09/29/ by Craig Sapp
!!muse2ps: T^@{OPR}^u^@{ONM}{. }@{OTL}^C^@{COM}^i2I150v85,85,85,85,130Q8c120
